libs/ui/packages/crypto-icons/src/svg/VRC.svg

<svg width="24" height="24" viewBox="0 0 24 24" fill="none">
<path d="M15.1987 5.25H18.75L12 18.75L5.25 5.25H8.778L12.0233 12.0848L15.1987 5.25ZM12 8.96925C11.409 8.96925 10.9297 8.47725 10.9297 7.8705C10.9297 7.26375 11.409 6.771 12 6.771C12.591 6.771 13.0703 7.26375 13.0703 7.8705C13.0703 8.47725 12.5903 8.96925 12 8.96925ZM16.8488 11.9993C17.4397 11.9993 17.919 12.492 17.9183 13.0988C17.9183 13.7063 17.4397 14.1975 16.8488 14.1975C16.2578 14.1975 15.7785 13.7055 15.7785 13.0988C15.7785 12.492 16.2578 12 16.8488 12V11.9993Z" fill="#418BCA"/>
</svg>

<svg width="24" height="24" viewBox="0 0 24 24" fill="none"><path fill="#418bca" d="M15.199 5.25h3.551L12 18.75 5.25 5.25h3.528l3.245 6.835zM12 8.97c-.591 0-1.07-.493-1.07-1.1 0-.606.479-1.099 1.07-1.099s1.07.493 1.07 1.1c0 .606-.48 1.098-1.07 1.098M16.849 12c.59 0 1.07.492 1.07 1.099s-.48 1.098-1.07 1.098-1.07-.491-1.07-1.098S16.258 12 16.848 12"/></svg>
